X:1

T:Why Should We Quarrel for Riches

M:9/8

L:1/8

R:Air

S:O’Farrell – Pocket Companion, vol. IV (c. 1810)

Z:AK/Fiddler’s Companion

K:E Minor

g | dBB (B>AG) AGA | B>cB (AGF) E2e | dBB (B>AG) AGA | B>cB (AGF) E2F |

G>AG GBd dBA | B>cB Bgf e2 g/e/ | dBB (B>AG) AGA | B>AG (GFF) E2 ||

 

WHY SHOULD YOU BE SO SAD UPON YOUR WEDDING DAY?  Northumbrian. Title appears in Henry Robson's list of popular Northumbrian song and dance tunes ("The Northern Minstrel's Budget"), which he published c. 1800.

 

WHY, SOLDIERS, WHY?  AKA ‑ "How Stands the Glass Around," "Wolfe's Song," "The Duke of Berwick's March." English, March and Song (4/4 time). F Minor. Standard tuning. AB. The tune appears in The Patron, a ballad opera, in 1729 and also in Vocal Music (1775) where it is called "A Soldier's Song." It was popular with English soldiers in the Napoleonic Wars, but associated with General Wolfe and the capture of Québec in 1759. Erroneously reported to have been sung by Wolfe the night before he was killed in battle on the Plains of Abraham (Winstock, 1970). Chappell (Popular Music of the Olden Times), vol. 2, 1859; pgs. 134‑135.

 

WHYCOCOMAGH BAY. Canadian, Reel. Canada, Cape Breton. D Mixolydian. Standard tuning. AB (MacQuarrie): ABB’ (Fitzgerald). A 20th century composition by Gordon MacQuarrie. Source for notated version: Winston Fitzgerald (1914-1987, Cape Breton) [Cranford]. Cranford (Winston Fitzgerald), 1997; No. 137, pg. 56.